X:89
T:Reel 89
M:4/4
K:Ador
L:1/8
Ad|d>c (3GBG d>G (3GGG |D>G, (3G,A,G, G>A (3BGG |cBAG BAGE|D>G (3GGG c2BA|G>A (3GAG A>G (3GFG |D>C (3CB,G A>G (3GBG |c2cG Gcec|dBGB d2||dB|dBGB A2GA|GABc dBGE|DFDF A2GA||GAGF D2:||2GBGA B2GA|GFGA GEGE|D2|DEFD :||2DEGA G2|GF|
